public/images/icons/p2p.svg

<svg fill="none" height="44" viewBox="0 0 42 44" width="42" xmlns="http://www.w3.org/2000/svg" xmlns:xlink="http://www.w3.org/1999/xlink"><linearGradient id="a"><stop offset="0" stop-color="#ffe7e0"/><stop offset=".34375" stop-color="#f8dbf4"/><stop offset=".6875" stop-color="#c4ddff"/><stop offset="1" stop-color="#cae9ff"/></linearGradient><linearGradient id="b" gradientUnits="userSpaceOnUse" x1="30.25" x2="37.8362" xlink:href="#a" y1="14" y2="8.55106"/><linearGradient id="c" gradientUnits="userSpaceOnUse" x1="11.782" x2="25.7866" xlink:href="#a" y1="7.00001" y2="-6.64333"/><linearGradient id="d" gradientUnits="userSpaceOnUse" x1=".464001" x2="7.81525" xlink:href="#a" y1="9.55103" y2="5.85055"/><linearGradient id="e" gradientUnits="userSpaceOnUse" x1=".004303" x2="10.0359" xlink:href="#a" y1="21.355" y2="19.6142"/><linearGradient id="f" gradientUnits="userSpaceOnUse" x1="12.482" x2="19.3786" xlink:href="#a" y1="37.856" y2="35.6691"/><linearGradient id="g" gradientUnits="userSpaceOnUse" x1="15.656" x2="32.3382" xlink:href="#a" y1="30.9968" y2="19.7668"/><path d="m30.25 14 8.25 4 3.25-8z" fill="url(#b)"/><path d="m20 4.00002c6.7 0 12.442 4.144 14.822 9.99998h4.256c-2.554-8.10598-10.14-13.99997931-19.078-13.99997931-2.77-.004-5.57.57200031-8.218 1.76799931l2.018 3.496c2.008-.846 4.114-1.268 6.2-1.264z" fill="url(#c)"/><path d="m9.678 14.124-.66-9.14597-8.553999 1.186z" fill="url(#d)"/><path d="m6.144 28c-3.35-5.802-2.632-12.848 1.25-17.836l-2.13-3.68597c-5.742001 6.26597-7.054 15.78197-2.584 23.52197 1.382 2.402 3.28 4.538 5.64 6.232l2.018-3.496c-1.736-1.314-3.154-2.928-4.194-4.736z" fill="url(#e)"/><path d="m20.072 31.876-7.59 5.146 5.304 6.814z" fill="url(#f)"/><path d="m33.856 28c-3.35 5.802-9.81 8.704-16.072 7.836l-2.128 3.686c8.296 1.84 17.194-1.78 21.664-9.522 1.39-2.398 2.29-5.11 2.578-8h-4.038c-.27 2.16-.958 4.196-2.004 6z" fill="url(#g)"/></svg>

<svg width="42" height="44" viewBox="0 0 42 44" fill="none" xmlns="http://www.w3.org/2000/svg">
<path d="M30.25 14L38.5 18L41.75 10L30.25 14Z" fill="url(#paint0_linear_25_571)"/>
<path d="M20 4.00002C26.7 4.00002 32.442 8.14402 34.822 14H39.078C36.524 5.89402 28.938 2.0688e-05 20 2.0688e-05C17.23 -0.00397931 14.43 0.572021 11.782 1.76802L13.8 5.26402C15.808 4.41802 17.914 3.99602 20 4.00002Z" fill="url(#paint1_linear_25_571)"/>
<path d="M9.678 14.124L9.018 4.97803L0.464001 6.16403L9.678 14.124Z" fill="url(#paint2_linear_25_571)"/>
<path d="M6.144 28C2.794 22.198 3.512 15.152 7.394 10.164L5.264 6.47803C-0.478001 12.744 -1.79 22.26 2.68 30C4.062 32.402 5.96 34.538 8.32 36.232L10.338 32.736C8.602 31.422 7.184 29.808 6.144 28Z" fill="url(#paint3_linear_25_571)"/>
<path d="M20.072 31.876L12.482 37.022L17.786 43.836L20.072 31.876Z" fill="url(#paint4_linear_25_571)"/>
<path d="M33.856 28C30.506 33.802 24.046 36.704 17.784 35.836L15.656 39.522C23.952 41.362 32.85 37.742 37.32 30C38.71 27.602 39.61 24.89 39.898 22H35.86C35.59 24.16 34.902 26.196 33.856 28Z" fill="url(#paint5_linear_25_571)"/>
<defs>
<linearGradient id="paint0_linear_25_571" x1="30.25" y1="14" x2="37.8362" y2="8.55106" gradientUnits="userSpaceOnUse">
<stop stop-color="#FFE7E0"/>
<stop offset="0.34375" stop-color="#F8DBF4"/>
<stop offset="0.6875" stop-color="#C4DDFF"/>
<stop offset="1" stop-color="#CAE9FF"/>
</linearGradient>
<linearGradient id="paint1_linear_25_571" x1="11.782" y1="7.00001" x2="25.7866" y2="-6.64333" gradientUnits="userSpaceOnUse">
<stop stop-color="#FFE7E0"/>
<stop offset="0.34375" stop-color="#F8DBF4"/>
<stop offset="0.6875" stop-color="#C4DDFF"/>
<stop offset="1" stop-color="#CAE9FF"/>
</linearGradient>
<linearGradient id="paint2_linear_25_571" x1="0.464001" y1="9.55103" x2="7.81525" y2="5.85055" gradientUnits="userSpaceOnUse">
<stop stop-color="#FFE7E0"/>
<stop offset="0.34375" stop-color="#F8DBF4"/>
<stop offset="0.6875" stop-color="#C4DDFF"/>
<stop offset="1" stop-color="#CAE9FF"/>
</linearGradient>
<linearGradient id="paint3_linear_25_571" x1="0.00430329" y1="21.355" x2="10.0359" y2="19.6142" gradientUnits="userSpaceOnUse">
<stop stop-color="#FFE7E0"/>
<stop offset="0.34375" stop-color="#F8DBF4"/>
<stop offset="0.6875" stop-color="#C4DDFF"/>
<stop offset="1" stop-color="#CAE9FF"/>
</linearGradient>
<linearGradient id="paint4_linear_25_571" x1="12.482" y1="37.856" x2="19.3786" y2="35.6691" gradientUnits="userSpaceOnUse">
<stop stop-color="#FFE7E0"/>
<stop offset="0.34375" stop-color="#F8DBF4"/>
<stop offset="0.6875" stop-color="#C4DDFF"/>
<stop offset="1" stop-color="#CAE9FF"/>
</linearGradient>
<linearGradient id="paint5_linear_25_571" x1="15.656" y1="30.9968" x2="32.3382" y2="19.7668" gradientUnits="userSpaceOnUse">
<stop stop-color="#FFE7E0"/>
<stop offset="0.34375" stop-color="#F8DBF4"/>
<stop offset="0.6875" stop-color="#C4DDFF"/>
<stop offset="1" stop-color="#CAE9FF"/>
</linearGradient>
</defs>
</svg>
